X:280
T:Reel 280
M:4/4
K:Amaj
L:1/8
AG|E>A, (3A,G,A, CA,CA,|G,A,B,C DB,G,B,|D>B, (3A,A,A, GEFE|DCB,A, G,B,ED:||2 (3CDC DE CA,B,G,|E,>A, (3A,G,A, CEAF|ECDB, CA,B,G,|E,>A, (3A,G,A, B,C (3EEG |AcBA GEFG|A2 (3AGA cAGA|GEDB, CA,B,G,|A,AAG AcBA|GEDB, CA,A,2|A2cA EAcA|G2BG BGEG|A2cA EAcA|GABA cAA2|A2cA EAcA|GABA GEFG|ABcA BAGF|EFGE DB,G,B,|
